X:99
T:Rosie Finn's Favorite
R:slide
N:No Name/Over The Water To Charlie/Kid On The Mountain
D:Bothy Band: Old Hag You've Killed Me
Z:id:hn-slide-7
M:6/8
L:1/8
K:G
G2B d2g|b2g d2B|cBc agf|gfe dBA|!
G2B d2g|b2g d2B|cBc agf|g3 g2d:|!
g2b c'2b|a2e e2g|f2a abg|f2d d2f|!
g2b c'2b|a2e a2g|faf def|g3 g2d:|
T:Over the Water to Charlie
R:slide
Z:id:hn-slide-31
M:6/8
L:1/8
K:D
A|DFA AFA|Bcd AFA|DFA AFA|B2c d2D|!
DFA AFA|Bcd AFA|fed edc|B2c d2:||!
g|fed edc|Bcd AFA|fed edc|B2e e2g|!
fed edc|Bcd AFA|DFA AFA|B2c d2:||
T:Kid on the Mountain, The
R:slip jig
Z:id:hn-slipjig-31
M:9/8
L:1/8
K:Em
~E3 FEF G2F|E3 BdB AGF|~E3 FEF G2A|BAG FAG FED:||!
B2B ABA G2D|GAB dge dBA|BGB ABA G2A|BAG FAG FED:||!
gfg efe e2f|gfg efg afd|gfg efe e2a|bag fag fed:||!
eBB e2f g2f|eBB efg afd|eBB e2f g2a|bag fag fed:||!
edB dBA G2D|GAB dge dBd|edB dBA G2A|BAG FAG FED:||
